-----BEGIN PGP PUBLIC KEY BLOCK-----

mQENBGKfDOEBCAChrKpiCM/IhrCn6OraRzPVEO2hciHStV2G5FS3eYQWmsCsxRsL
l2dp99F8PH6eymXiGjRrKWtY5v1TNMsvqa0+YV1ZXr2Uqb2Po7eMgamz/CpPk7Vr
Y1Z5VTpfDh2gKZPsvljqQlsja8LWlgaA+mNjxW52XMBUAGac4WKvcoXXpOcSz52C
QwnsIybbjc2lblZEHNQYBJ3JwfFPOAJOU9kTKRqOHiDe47nEQVMy/VhxTvl3GN8O
icq8yNYS3S6fxCOljXo6cAw/NqKPz4jiew2uGbFfKXdjIxNbkysFi9DTRCFdia1l
UpWQsJ2TJMhIXl04mHEsgaWjLyTO3HjnOCd9ABEBAAG0H1BlY1Zhc0ZpbGVLZXkg
PGEuYW5zYXJpQHBlYy5pcj6JAVQEEwEIAD4WIQRQR6Xac+0CJebcSUIo8nKVheqK
YQUCYp8M4QIbAwUJA8O4JwULCQgHAgYVCgkICwIEFgIDAQIeAQIXgAAKCRAo8nKV
heqKYcfEB/9sdZlRk0f2U9p83LI8YTYrYzZ/5OGeSekky1wXcwEG0cQd0HtkyUVG
vTPqr7Y2RosQITEK1K2Cq0dclMFfAaK3XagkygqS1Jd8LFwzFRb5I8BcjhB9ienr
/qTSzZ035pmYRgwM8wKti7nX8CSyekf9tg/lboYBFGftOo+MyVFonLzdgFULgJxN
PGkA44FXP0G7HGiStOGlulgtLdhjdSu4350iFhnOmS5a8c+Zio+7qiyJprcf4iwK
id9BiKnUYo+/9wZjvLUrFIOPDHqmqgUKvOjQ/gxfN/vCNOvrMm7VvhEWUYwNGJDx
LCYYFBZ4aw7CxjgeGnZyejD6wGmgc3PnuQENBGKfDOEBCADJPriFjymTIrGgVytv
cpFtPO7wmSUxX4qzuDTm/BMsIsmPgW2lA+S9ztWHbIJlnl98HvePcJaFK2fUfy8B
SteAZOZIvFSIRK2vjFvJIIbdNfW4/aDrOIBpzXe/EG3/tVYznabMDaxMMjS6Ns9Q
769z4ZheS+tOu6N9vpT5XpBlrtf2JdD2GnJgICfn4ZhOULJ1BoDj7HN7eqh3aO60
3uBy0AQjrtLVzUvAw81eqVGlCiAEHeDgd9nnbPacVut6pL/mRN9BOZXSjfN2sC7v
24xuc36UiRvo89mPY17sxVoKEiyePMhmVsivrjIHhDLP32h2UEL43oshmgOhdNqh
S4x1ABEBAAGJATwEGAEIACYWIQRQR6Xac+0CJebcSUIo8nKVheqKYQUCYp8M4QIb
DAUJA8O4JwAKCRAo8nKVheqKYTzLB/9SHLSalalnPrk9MkZjMxknoUEYI3X4YJ+R
XTGLkRk5MWbxO2JCubDQBD/94kdMXMNXABaRiB4/YFtOb+YPR328UuLTlN80TQ7Y
WxD656t5IQvPN5XjaTESVs8KZwsb5HGDufnY/A8GgE0pZYxhyXal0/YmbGnX2Zoa
n223p9ZGUzfvBtbQoBwz/UfLJF6EEmpgz0nTnOE47DJAuMT+xwNGxPMblV3tDSYv
9IU+y3a4K0XiChuIL/vzyPCJ8xCP68G7Tk2PdQ3z5ADAL1p3snztwhTUdDanba8Q
d+U9tIuk55B/VcKRlF1Qm0Xq+jly1BJ48tLC3MrJgYCV51XCmLZG
=VxGC
-----END PGP PUBLIC KEY BLOCK-----
